X: 11
T: Amors nous traite / Je m'en voy
N: Derived from Bus3003-Amors_nous_traite__Je_men_voy.krn
C: Antoine Busnoys
%%abc-version 2.0
%%abcx-abcm2ps-target-version 5.9.1 (29 Sep 2008)
%%abc-creator hum2abc beta
%%abcx-conversion-date 2019/02/16 20:26:06
%%abc-edited-by Jesse Rodin
%%abc-edited-by Chris Gage 04-02-2015
%%abcx-initial-encoding-date 2015/05/01/
%%humdrum-veritas 2966812305
%%humdrum-veritas-data 1330375141
%%linebreak <none>
%%barnumbers 0
L: 1/4
M: 2/1
Q: 1/2=120
%%staves [1 2 3 4]
V: 1 clef=treble
V: 2 clef=treble-8
V: 3 clef=treble-8
V: 4 clef=bass
K: F
[V:1] G8 | 
[V:2] z8 | 
[V:3] G8 | 
[V:4] z8 | 
[V:1] G4G4 | 
[V:2] B4c4 | 
[V:3] _E4_E4 | 
[V:4] z8 | 
[V:1] F4B4 | 
[V:2] d8 | 
[V:3] D4z4 | 
[V:4] F,4G,4 | 
[V:1] c4c4 | 
[V:2] c4c4 | 
[V:3] z8 | 
[V:4] A,8 | 
[V:1] B4z2G2- | 
[V:2] d8 | 
[V:3] z4G4 | 
[V:4] G,4G,4 | 
[V:1] G2^FEF4 | 
[V:2] z8 | 
[V:3] D8 | 
[V:4] A,8 | 
[V:1] G6A2 | 
[V:2] d4c4 | 
[V:3] G4E2F2 | 
[V:4] z8 | 
[V:1] B4A4 | 
[V:2] B4c4 | 
[V:3] D2G4^F2 | 
[V:4] z4A,4 | 
[V:1] B2d3cA2 | 
[V:2] B4A4 | 
[V:3] G4z2c2 | 
[V:4] G,4F,4 | 
[V:1] B4A4 | 
[V:2] G4z4 | 
[V:3] B2d3cA2 | 
[V:4] G,4F,4 | 
[V:1] G2G4^F2 | 
[V:2] z8 | 
[V:3] B2G2A4 | 
[V:4] E,4D,4 | 
[V:1] G8 | 
[V:2] z8 | 
[V:3] G8 | 
[V:4] z8 | 
[V:1] G8 | 
[V:2] z8 | 
[V:3] G8 | 
[V:4] z8 | 
[V:1] G4G4 | 
[V:2] B4c4 | 
[V:3] E4E4 | 
[V:4] z8 | 
[V:1] F4B4 | 
[V:2] d8 | 
[V:3] D4z4 | 
[V:4] F,4G,4 | 
[V:1] c4c4 | 
[V:2] c4c4 | 
[V:3] z8 | 
[V:4] A,8 | 
[V:1] B4z2G2- | 
[V:2] d8 | 
[V:3] z4G4 | 
[V:4] G,4G,4 | 
[V:1] G2^FEF4 | 
[V:2] z8 | 
[V:3] D8 | 
[V:4] A,8 | 
[V:1] G6A2 | 
[V:2] d4c4 | 
[V:3] G4E2F2 | 
[V:4] z8 | 
[V:1] B4A4 | 
[V:2] B4c4 | 
[V:3] D2G4^F2 | 
[V:4] z4A,4 | 
[V:1] B2d3cA2 | 
[V:2] B4A4 | 
[V:3] G4z2c2 | 
[V:4] G,4F,4 | 
[V:1] B4A4 | 
[V:2] G4z4 | 
[V:3] B2d3cA2 | 
[V:4] G,4F,4 | 
[V:1] G2G4^F2 | 
[V:2] z8 | 
[V:3] B2G2A4 | 
[V:4] E,4D,4 | 
[V:1] G8 | 
[V:2] B4c4 | 
[V:3] G4E4 | 
[V:4] z8 | 
[V:1] z4G4 | 
[V:2] d8 | 
[V:3] D4z4 | 
[V:4] F,4G,4 | 
[V:1] E4E4 | 
[V:2] z8 | 
[V:3] c8 | 
[V:4] A,8 | 
[V:1] F6ED | 
[V:2] d8 | 
[V:3] d4f4 | 
[V:4] z8 | 
[V:1] C2c3BA2- | 
[V:2] z8 | 
[V:3] e6f2- | 
[V:4] A,8 | 
[V:1] A2GFA3G | 
[V:2] d8 | 
[V:3] f2edf3e | 
[V:4] z8 | 
[V:1] E2D2E4 | 
[V:2] z8 | 
[V:3] c2d4^c2 | 
[V:4] A,8 | 
[V:1] D2B,2A,2A2- | 
[V:2] d4c4 | 
[V:3] d2G2A4 | 
[V:4] z8 | 
[V:1] A2G2A4 | 
[V:2] B4A4 | 
[V:3] E4e4 | 
[V:4] z8 | 
[V:1] E2F2G2E2- | 
[V:2] c4B3G | 
[V:3] z8 | 
[V:4] A,4G,4 | 
[V:1] E2D2E2G2- | 
[V:2] A4G4 | 
[V:3] z4z2e2- | 
[V:4] F,4E,4 | 
[V:1] GFD2z2A2- | 
[V:2] z8 | 
[V:3] ed=B2c2d2 | 
[V:4] G,4F,3D, | 
[V:1] AGG3E^F2 | 
[V:2] z8 | 
[V:3] G4A4 | 
[V:4] E,4D,4 | 
[V:1] G8 | 
[V:2] B4c4 | 
[V:3] (3G6F2E4 | 
[V:4] z8 | 
[V:1] z8 | 
[V:2] d8 | 
[V:3] (3D6C2B,4 | 
[V:4] F,4G,4 | 
[V:1] A8 | 
[V:2] z8 | 
[V:3] A,6D2- | 
[V:4] A,8 | 
[V:1] F4F4 | 
[V:2] d8 | 
[V:3] DEF2D2d2- | 
[V:4] z8 | 
[V:1] E4E4 | 
[V:2] z8 | 
[V:3] d2^c=B^c4 | 
[V:4] A,8 | 
[V:1] D2A2B2d2- | 
[V:2] d8 | 
[V:3] d2f2B2f2- | 
[V:4] z8 | 
[V:1] d2^c=Bc4 | 
[V:2] z8 | 
[V:3] f2ede4 | 
[V:4] A,8 | 
[V:1] d2B4A2 | 
[V:2] d4c4 | 
[V:3] d2D2E2F2 | 
[V:4] z8 | 
[V:1] B2G2A4 | 
[V:2] B4c4 | 
[V:3] G4z2F2 | 
[V:4] z4A,4 | 
[V:1] B2d3cBA | 
[V:2] B3GA4 | 
[V:3] G4D4 | 
[V:4] G,4F,4 | 
[V:1] B2AGA3G | 
[V:2] G4z4 | 
[V:3] z2d4cB | 
[V:4] G,4F,3D, | 
[V:1] G2^FEF3E | 
[V:2] z8 | 
[V:3] cBAGA3c | 
[V:4] E,4D,4 | 
[V:1] G4z4 | 
[V:2] B4c4 | 
[V:3] G4A4 | 
[V:4] z8 | 
[V:1] A4B4 | 
[V:2] d8 | 
[V:3] D4z4 | 
[V:4] F,4G,4 | 
[V:1] c4c4 | 
[V:2] c4c4 | 
[V:3] z8 | 
[V:4] A,8 | 
[V:1] B4d4 | 
[V:2] d8 | 
[V:3] z4B,4 | 
[V:4] G,4G,4 | 
[V:1] c6F2- | 
[V:2] z8 | 
[V:3] A,3B,C2D2- | 
[V:4] A,8 | 
[V:1] FGA3GE2 | 
[V:2] d4c4 | 
[V:3] DEF3GA2 | 
[V:4] z8 | 
[V:1] D4z4 | 
[V:2] B4c4 | 
[V:3] B2G4^F2 | 
[V:4] z4A,4 | 
[V:1] G4A4 | 
[V:2] B4A4 | 
[V:3] G4z2c2 | 
[V:4] G,4F,4 | 
[V:1] B4A4 | 
[V:2] G4z4 | 
[V:3] B2AGd2c2 | 
[V:4] G,4F,4 | 
[V:1] G4A4 | 
[V:2] z8 | 
[V:3] cBAG^F3E/^F/ | 
[V:4] E,4D,4 | 
[V:1] G4A4- | 
[V:2] B4c4 | 
[V:3] G2E4F2 | 
[V:4] z8 | 
[V:1] A2GAB2AG | 
[V:2] d8 | 
[V:3] D4z4 | 
[V:4] F,4G,4 | 
[V:1] ^F2E2F4 | 
[V:2] c4c4 | 
[V:3] z8 | 
[V:4] A,8 | 
[V:1] G2z2B4 | 
[V:2] d8 | 
[V:3] z4G4- | 
[V:4] G,4G,4 | 
[V:1] c6BA | 
[V:2] z8 | 
[V:3] G2^FE^F4 | 
[V:4] A,8 | 
[V:1] B4c4 | 
[V:2] d4c4 | 
[V:3] G2FGAGFE | 
[V:4] z8 | 
[V:1] d4c2A2 | 
[V:2] B4c4 | 
[V:3] D2G3E^F2 | 
[V:4] z4A,4 | 
[V:1] B2G2z2c2 | 
[V:2] B4A4 | 
[V:3] G2d3cA2 | 
[V:4] G,4F,4 | 
[V:1] B2AGB2A2- | 
[V:2] G4z4 | 
[V:3] B2_e2d2c2- | 
[V:4] G,4F,4 | 
[V:1] AGG4^F2 | 
[V:2] z4d4 | 
[V:3] cBG2A4 | 
[V:4] E,4D,4 | 
[V:1] G8- | 
[V:2] d8- | 
[V:3] G8- | 
[V:4] z4G,4 | 
[V:1] G8 |]  
[V:2] d8 |]  
[V:3] G8 |]  
[V:4] G,8 |]  



